X: 17
T:Fanny Frail in D
M:C
L:1/8
C:Trad.
S:Dommett
A:Evesham, Worcestershire
P:AABABAC
B:Dommett, p. 21, 43
N:originally entered by Rich Holmes, 1996 Sept.
K:D
I:speed 400
L:1/8
P:A
     F2 A2 G2 B2 | A2 de f2 d2 | {a}g2  f2 e2 d2 | {f}edcB  AGFE |\
     DFAFG2B2 | A2 de f4    |    gfed   cABc  |    e2 d2 d4   ||\
P:B
     e2 A2 e2 A2 |g2 f2 ec A2 |   g2  f2 e2 d2 | {f}edcB AGFE |\
     D2 A2 G2B2 |A2 de f4    |    gfed   cABc  |    d2 d2d4   ||\
P:C
a2 | f6       a2 | f6     a2 |   d'2a2 g2 f2 |    e6      ee |\
    eeee eeee | eeee  eeae |    e'cag  fgec  |    d6         ||
%  ABC2Win Version 2.1 23/11/2001
